.local/share/icons/Gruvbox-Plus-Dark/panel/16/megapaused.svg

<svg xmlns="http://www.w3.org/2000/svg" width="16" height="16" version="1.1">
 <defs>
  <style id="current-color-scheme" type="text/css">
   .ColorScheme-Text { color:#ebdbb2; } .ColorScheme-Highlight { color:#458588; }
  </style>
 </defs>
 <g transform="translate(-3,-3)">
  <path style="fill:currentColor;opacity:0.3" class="ColorScheme-Text" d="M 8 1 A 7 7 0 0 0 1 8 A 7 7 0 0 0 8 15 A 7 7 0 0 0 8.0058594 15 A 5 5 0 0 1 7 12 A 5 5 0 0 1 7.4199219 10 L 7 10 L 6 8.5 L 6 11 L 4 11 L 4 5 L 6 5 L 8 8 L 10 5 L 12 5 L 12 7 A 5 5 0 0 1 15 8.0078125 A 7 7 0 0 0 15 8 A 7 7 0 0 0 8 1 z" transform="translate(3,3)"/>
 </g>
 <path style="fill:currentColor" class="ColorScheme-Text" d="m 12.279038,8.0080488 c -0.768533,-0.054321 -1.561885,0.113119 -2.2792976,0.527344 -1.9132001,1.1046001 -2.5673911,3.5516442 -1.4628911,5.4648442 1.1045001,1.9131 3.5497917,2.567491 5.4628917,1.462891 1.9132,-1.1046 2.569344,-3.549691 1.464844,-5.462891 C 14.774272,8.8045488 13.559927,8.0985858 12.279038,8.0080488 Z m -2.2792976,1.9921882 1.0000006,0 0,4 -1.0000006,0 0,-4 z m 3.0000006,0 1,0 0,4 -1,0 0,-4 z"/>
</svg>

<svg width="16" height="16" version="1.1" xmlns="http://www.w3.org/2000/svg">
  <defs>
    <style id="current-color-scheme" type="text/css">.ColorScheme-Text { color:#ebdbb2; } .ColorScheme-Highlight { color:#458588; } .ColorScheme-NeutralText { color:#fe8019; } .ColorScheme-PositiveText { color:#689d6a; } .ColorScheme-NegativeText { color:#fb4934; }</style>
  </defs>
  <path class="ColorScheme-Text" d="m8 1a7 7 0 0 0-7 7 7 7 0 0 0 7 7 7 7 0 0 0 0.005859 0 5 5 0 0 1-1.006-3 5 5 0 0 1 0.4199-2h-0.4199l-1-1.5v2.5h-2v-6h2l2 3 2-3h2v2a5 5 0 0 1 3 1.008 7 7 0 0 0 0-0.007812 7 7 0 0 0-7-7z" fill="currentColor" opacity=".3"/>
  <path class="ColorScheme-Text" d="m12.28 8.008c-0.7685-0.05432-1.562 0.1131-2.279 0.5273-1.913 1.105-2.567 3.552-1.463 5.465 1.105 1.913 3.55 2.567 5.463 1.463 1.913-1.105 2.569-3.55 1.465-5.463-0.6903-1.196-1.905-1.902-3.186-1.992zm-2.279 1.992h1v4h-1v-4zm3 0h1v4h-1v-4z" fill="currentColor"/>
</svg>
